X:1
T:Title
%%score { ( 1 3 ) | 2 }
L:1/8
M:4/4
K:G
V:1 treble nm="Grand Piano"
V:3 treble 
V:2 bass 
V:1
 z4 z2[Q:1/4=100] D>D | G2 G2 [FA]2 [FA]2 | B3 A G2 G>A | B2 B2 d2 d2 |[M:3/4] [FA]6 |[M:1/4] D>D | %6
[M:4/4] G2 G2 [FA]2 [FA]2 | B3 A G2 B>B | A2 A2 B2 ^c2 |[M:3/4] [Fd]6 |[M:1/4] B>c |[M:4/4] d6 z2 | %12
 d6 z2 | z2 F>F F2 e2 |[M:3/4] d6 |[M:1/4] D>D |[M:4/4] G2 G2 [FA]2 [FA]2 | %17
[M:9/8] [GB]2 [=FB]- [FB] [Ec]2- [Ec] [Ge]2 |[M:4/4] [Gd]3 [GB] [GB]2 [FA]2 |[M:3/4] [DG]6 |] %20
V:2
 z4 z2 [G,B,]>[G,B,] | [G,B,D]2 [G,B,D]2 [D,D]2 [D,D]2 | [G,DG]3 [G,CD] [G,B,D]2 [G,B,D]>[G,CD] | %3
 [G,DG]2 [G,DG]2 [G,B,G]2 [G,B,G]2 |[M:3/4][K:bass] [D,D]6 |[M:1/4] [G,B,]>[G,B,] | %6
[M:4/4] [G,B,D]2 [G,B,D]2 [D,D]2 [D,D]2 | [G,DG]3 [G,D] [G,B,D]2 [G,DG]>[G,DG] | %8
 [A,DF]2 [A,DF]2 [A,EG]2 [A,EG]2 |[M:3/4][K:bass] [D,D]6 |[M:1/4] z2 | %11
[M:4/4] z2 [G,B,]>[G,B,] [G,B,]2 z2 | z2 [G,B,]2 [G,B,]2 z2 | z2 [D,D]>[D,D] [D,D]2 z2 | %14
[M:3/4] z2 [G,B,]2 [G,B,]2 |[M:1/4] [G,B,]>[G,B,] |[M:4/4] [G,B,D]2 [G,B,D]2 [D,D]2 [D,D]2 | %17
[M:9/8] [G,D]2 [G,D]- [G,D] [C,C]2- [C,C] [C,C]2 |[M:4/4] [D,B,]3 [D,D] [D,D]2 [D,C]2 | %19
[M:3/4] [G,B,]6 |] %20
V:3
 x8 | x8 | x8 | x8 |[M:3/4] x6 |[M:1/4] x2 |[M:4/4] x8 | x8 | x8 |[M:3/4] x6 |[M:1/4] x2 | %11
[M:4/4] z2 G>G G2 e2 | z2 G2 G2 c>B | A6 z2 |[M:3/4] z2 G2 G2 |[M:1/4] x2 |[M:4/4] x8 |[M:9/8] x9 | %18
[M:4/4] x8 |[M:3/4] x6 |] %20

